public/themes/Gathenhielmska/assets/images/mail_icon.svg

<svg fill="none" height="13" viewBox="0 0 17 13" width="17" xmlns="http://www.w3.org/2000/svg"><path d="m14.5168.934082h-12.79998c-.879999 0-1.591999.674998-1.591999 1.499998l-.008 9.00002c0 .825.72 1.5 1.599999 1.5h12.79998c.88 0 1.6-.675 1.6-1.5v-9.00002c0-.825-.72-1.499998-1.6-1.499998zm0 2.999998-6.39998 3.75-6.4-3.75v-1.5l6.4 3.75 6.39998-3.75z" fill="#fff"/></svg>

<svg width="17" height="13" viewBox="0 0 17 13" fill="none" xmlns="http://www.w3.org/2000/svg">
<path d="M14.5168 0.934082H1.71682C0.836821 0.934082 0.124821 1.60908 0.124821 2.43408L0.116821 11.4341C0.116821 12.2591 0.836821 12.9341 1.71682 12.9341H14.5168C15.3968 12.9341 16.1168 12.2591 16.1168 11.4341V2.43408C16.1168 1.60908 15.3968 0.934082 14.5168 0.934082ZM14.5168 3.93408L8.11682 7.68408L1.71682 3.93408V2.43408L8.11682 6.18408L14.5168 2.43408V3.93408Z" fill="white"/>
</svg>
